X: 7428
T: Cloonloo
R: reel
M: 4/4
K: Eminor
GF|:EBed B2 GB|BAGB AGFD|E3 F G2 GB|~c2 Bc AGFG|
EBed B2 GB|BAGB AGFG|EBBB cB~B2|AGFG DE ~E2:|
|:EBef gBeg|fBdf ge b2|EBef ~g2 ag|fedf e2 ed|
EBef ~g2 ag|fBdf gega|agaf gfed|fedB AGFG:|

